assets/images/ico_phone1.svg

<svg width="31" height="13" viewBox="0 0 31 13" fill="none" xmlns="http://www.w3.org/2000/svg">
<path d="M1.30131 11.2576C-0.0696096 7.92552 1.81744 5.21422 2.56877 4.4629C2.78939 4.24227 6.04317 0.624091 15.6687 0.371201C23.4151 0.167703 27.9564 3.73764 28.7692 4.46588C29.561 5.17528 31.2289 7.27297 30.0385 11.2614C29.891 11.7555 29.3316 12.4684 29.0031 12.4684C28.8572 12.4684 23.1065 11.0644 22.9309 11.003C22.7554 10.9418 22.6102 10.8539 22.4959 10.7396C22.3326 10.5763 22.2446 10.2556 22.2324 9.77751C22.22 9.29965 22.2484 8.82179 22.318 8.34393C22.3874 7.86589 22.4241 7.3963 22.4283 6.9346C22.4324 6.47328 22.3606 6.16874 22.2137 6.02175C21.8163 5.65599 20.1372 4.60194 15.6633 4.89031C11.1885 5.17849 9.45157 5.73597 9.30057 5.80539C9.14937 5.87501 9.03742 5.94656 8.96394 6.02004C8.81679 6.16719 8.74507 6.47133 8.74917 6.93284C8.75366 7.39435 9.0388 9.21715 9.02674 9.6952C9.0143 10.1729 8.92642 10.4936 8.76292 10.6571C8.64867 10.7713 8.50382 10.8592 8.32838 10.9204C8.15275 10.9817 2.47573 12.4667 2.33722 12.4651C1.96093 12.4605 1.49759 11.7348 1.30131 11.2576Z" fill="white"/>
</svg>

<svg width="31" height="13" fill="none" xmlns="http://www.w3.org/2000/svg"><path d="M1.301 11.258c-1.37-3.332.516-6.044 1.268-6.795.22-.22 3.474-3.839 13.1-4.092 7.746-.203 12.287 3.367 13.1 4.095.792.71 2.46 2.807 1.27 6.795-.148.495-.707 1.207-1.036 1.207-.146 0-5.896-1.404-6.072-1.465a1.13 1.13 0 01-.435-.263c-.163-.164-.251-.484-.264-.962a8.414 8.414 0 01.086-1.434c.07-.478.106-.948.11-1.41.004-.46-.067-.765-.214-.912-.398-.366-2.077-1.42-6.55-1.132-4.476.288-6.212.846-6.363.915-.152.07-.264.142-.337.215-.147.147-.219.451-.215.913.005.461.29 2.284.278 2.762-.013.478-.1.799-.264.962a1.13 1.13 0 01-.435.263c-.175.062-5.852 1.547-5.99 1.545-.377-.005-.84-.73-1.037-1.207z" fill="#fff"/></svg>
